X: 8977
T: Cutting Bracken
R: strathspey
M: 4/4
K: Aminor
[M:2/4]
|:AA ~a2|ge ~g2|e>d BA|GA BG|
AA ~a2|ge ga|e>d BG|A2 A2:|
|:e>d BA|GA Bd|e>d BA|B2 d2|
e>d BA|GA Bd|e>d BG|A2 A2:|

